icons/chart_bar.svg

<svg width="48" height="48" viewBox="0 0 48 48" fill="none" xmlns="http://www.w3.org/2000/svg">
<path fill-rule="evenodd" clip-rule="evenodd" d="M7 42C6.44772 42 6 41.5523 6 41V7H8V40H11V25C11 24.4477 11.4477 24 12 24H18C18.5523 24 19 24.4477 19 25V40H21V21C21 20.4477 21.4477 20 22 20H28C28.5523 20 29 20.4477 29 21V40H31V13C31 12.4477 31.4477 12 32 12H38C38.5523 12 39 12.4477 39 13V40H41V42H7ZM37 40V14H33V40H37ZM27 40H23V22H27V40ZM17 40V26H13V40H17Z" fill="black"/>
</svg>

<svg
  xmlns="http://www.w3.org/2000/svg"
  width="24"
  height="24"
  viewBox="0 0 24 24"
  fill="none"
  stroke="currentColor"
  stroke-width="2"
  stroke-linecap="round"
  stroke-linejoin="round"
>
  <path
    fill-rule="evenodd"
    d="M7 42a1 1 0 0 1-1-1V7h2v33h3V25a1 1 0 0 1 1-1h6a1 1 0 0 1 1 1v15h2V21a1 1 0 0 1 1-1h6a1 1 0 0 1 1 1v19h2V13a1 1 0 0 1 1-1h6a1 1 0 0 1 1 1v27h2v2zm30-2V14h-4v26zm-10 0h-4V22h4zm-10 0V26h-4v14z"
    clip-rule="evenodd"
  />
</svg>
